src/assets/filled/Code1.svg

<?xml version="1.0" encoding="UTF-8"?>
<svg width="24" height="24" viewBox="0 0 24 24" xmlns="http://www.w3.org/2000/svg">
 <path d="m16.19 2h-8.38c-3.64 0-5.81 2.17-5.81 5.81v8.37c0 3.65 2.17 5.82 5.81 5.82h8.37c3.64 0 5.81-2.17 5.81-5.81v-8.38c0.01-3.64-2.16-5.81-5.8-5.81zm-6.25 11.27c-0.68 1.02-1.62 1.85-2.72 2.4-0.1 0.05-0.22 0.08-0.33 0.08-0.28 0-0.54-0.15-0.67-0.41-0.19-0.37-0.04-0.82 0.34-1.01 0.87-0.43 1.61-1.09 2.14-1.89 0.18-0.27 0.18-0.61 0-0.88-0.54-0.8-1.28-1.46-2.14-1.89-0.38-0.18-0.53-0.63-0.34-1.01 0.18-0.37 0.63-0.52 1-0.33 1.1 0.55 2.04 1.38 2.72 2.4 0.52 0.77 0.52 1.77 0 2.54zm7.06 2.48h-4c-0.41 0-0.75-0.34-0.75-0.75s0.34-0.75 0.75-0.75h4c0.41 0 0.75 0.34 0.75 0.75s-0.34 0.75-0.75 0.75z"/>
</svg>

<svg width="24" height="24" viewBox="0 0 24 24"  xmlns="http://www.w3.org/2000/svg">
<path d="M16.19 2H7.81C4.17 2 2 4.17 2 7.81V16.18C2 19.83 4.17 22 7.81 22H16.18C19.82 22 21.99 19.83 21.99 16.19V7.81C22 4.17 19.83 2 16.19 2ZM9.94 13.27C9.26 14.29 8.32 15.12 7.22 15.67C7.12 15.72 7 15.75 6.89 15.75C6.61 15.75 6.35 15.6 6.22 15.34C6.03 14.97 6.18 14.52 6.56 14.33C7.43 13.9 8.17 13.24 8.7 12.44C8.88 12.17 8.88 11.83 8.7 11.56C8.16 10.76 7.42 10.1 6.56 9.67C6.18 9.49 6.03 9.04 6.22 8.66C6.4 8.29 6.85 8.14 7.22 8.33C8.32 8.88 9.26 9.71 9.94 10.73C10.46 11.5 10.46 12.5 9.94 13.27ZM17 15.75H13C12.59 15.75 12.25 15.41 12.25 15C12.25 14.59 12.59 14.25 13 14.25H17C17.41 14.25 17.75 14.59 17.75 15C17.75 15.41 17.41 15.75 17 15.75Z" />
</svg>
